icons/circle/48/gnome-schedule.svg

<svg xmlns="http://www.w3.org/2000/svg" viewBox="0 0 48 48">
 <defs>
  <linearGradient id="linearGradient3764" x1="1" x2="47" gradientUnits="userSpaceOnUse" gradientTransform="matrix(0,-1,1,0,-1.5e-6,47.999998)">
   <stop style="stop-color:#ddd;stop-opacity:1"/>
   <stop offset="1" style="stop-color:#e7e7e7;stop-opacity:1"/>
  </linearGradient>
 </defs>
 <g>
  <path d="m 36.31 5 c 5.859 4.062 9.688 10.831 9.688 18.5 c 0 12.426 -10.07 22.5 -22.5 22.5 c -7.669 0 -14.438 -3.828 -18.5 -9.688 c 1.037 1.822 2.306 3.499 3.781 4.969 c 4.085 3.712 9.514 5.969 15.469 5.969 c 12.703 0 23 -10.298 23 -23 c 0 -5.954 -2.256 -11.384 -5.969 -15.469 c -1.469 -1.475 -3.147 -2.744 -4.969 -3.781 z m 4.969 3.781 c 3.854 4.113 6.219 9.637 6.219 15.719 c 0 12.703 -10.297 23 -23 23 c -6.081 0 -11.606 -2.364 -15.719 -6.219 c 4.16 4.144 9.883 6.719 16.219 6.719 c 12.703 0 23 -10.298 23 -23 c 0 -6.335 -2.575 -12.06 -6.719 -16.219 z" style="opacity:0.05"/>
  <path d="m 41.28 8.781 c 3.712 4.085 5.969 9.514 5.969 15.469 c 0 12.703 -10.297 23 -23 23 c -5.954 0 -11.384 -2.256 -15.469 -5.969 c 4.113 3.854 9.637 6.219 15.719 6.219 c 12.703 0 23 -10.298 23 -23 c 0 -6.081 -2.364 -11.606 -6.219 -15.719 z" style="opacity:0.1"/>
  <path d="m 31.25 2.375 c 8.615 3.154 14.75 11.417 14.75 21.13 c 0 12.426 -10.07 22.5 -22.5 22.5 c -9.708 0 -17.971 -6.135 -21.12 -14.75 a 23 23 0 0 0 44.875 -7 a 23 23 0 0 0 -16 -21.875 z" style="opacity:0.2"/>
 </g>
 <g>
  <path d="m 24 1 c 12.703 0 23 10.297 23 23 c 0 12.703 -10.297 23 -23 23 -12.703 0 -23 -10.297 -23 -23 0 -12.703 10.297 -23 23 -23 z" style="fill:url(#linearGradient3764);fill-opacity:1"/>
 </g>
 <g>
  <path d="m 40.03 7.531 c 3.712 4.084 5.969 9.514 5.969 15.469 0 12.703 -10.297 23 -23 23 c -5.954 0 -11.384 -2.256 -15.469 -5.969 4.178 4.291 10.01 6.969 16.469 6.969 c 12.703 0 23 -10.298 23 -23 0 -6.462 -2.677 -12.291 -6.969 -16.469 z" style="opacity:0.1"/>
 </g>
 <g transform="scale(3.543307,3.543307)">
  <path d="m 25,10 c -8.284,0 -15,6.716 -15,15 0,8.284 6.716,15 15,15 8.284,0 15,-6.716 15,-15 0,-8.284 -6.716,-15 -15,-15 z m 0,4 c 6.075,0 11,4.925 11,11 0,6.075 -4.925,11 -11,11 -6.075,0 -11,-4.925 -11,-11 0,-6.075 4.925,-11 11,-11 z m 0,1 c -3.745,0 -6.996,2.047 -8.709,5.094 L 16,20 l 7.297,6.04 a 2,2 0 0 0 0.99,0.82 l 0.074,0.063 0.012,-0.031 A 2,2 0 0 0 25,26.996 2,2 0 0 0 25.758,26.844 L 35,24.996 25.766,23.148 A 2,2 0 0 0 25.707,23.127 L 25.711,23.126 25,22.897 25,15.004 Z" transform="scale(0.28222223,0.28222223)" style="fill:#000;opacity:0.1;fill-opacity:1;stroke:none"/>
  <path d="m 24,14 c -3.772,0 -7.05,2.073 -8.75,5.156 L 24,24 24,14 Z" transform="scale(0.28222223,0.28222223)" style="fill:#ee7923;fill-opacity:1;stroke:none"/>
  <path d="M 24,9 C 15.716,9 9,15.716 9,24 9,32.284 15.716,39 24,39 32.284,39 39,32.284 39,24 39,15.716 32.284,9 24,9 Z m 0,4 c 6.075,0 11,4.925 11,11 0,6.075 -4.925,11 -11,11 -6.075,0 -11,-4.925 -11,-11 0,-6.075 4.925,-11 11,-11 z" transform="scale(0.28222223,0.28222223)" style="fill:#f2c046;opacity:1;fill-opacity:1;stroke:none"/>
  <path d="m 24 22 10 2 -10 2 z" transform="scale(0.28222223,0.28222223)" style="fill:#333;fill-opacity:1;stroke:none"/>
  <path d="M 24.711,22.12 23.36,25.928 14.999,19 Z" transform="scale(0.28222223,0.28222223)" style="fill:#333;fill-opacity:1;stroke:none"/>
  <path d="m -26 11 a 1.5 2 0 1 1 -3 0 1.5 2 0 1 1 3 0 z" transform="matrix(0.37629631,0,0,0.28222223,17.121482,3.668889)" style="fill:#333;fill-opacity:1;stroke:none"/>
 </g>
</svg>

<svg xmlns="http://www.w3.org/2000/svg" viewBox="0 0 48 48">
  <defs>
    <linearGradient id="a" x1="1" x2="47" gradientUnits="userSpaceOnUse" gradientTransform="rotate(-90 24 24)">
      <stop stop-color="#ddd"/>
      <stop offset="1" stop-color="#e7e7e7"/>
    </linearGradient>
  </defs>
  <path d="M36.31 5c5.859 4.062 9.688 10.831 9.688 18.5 0 12.426-10.07 22.5-22.5 22.5-7.669 0-14.438-3.828-18.5-9.688a23.24 23.24 0 0 0 3.781 4.969 22.923 22.923 0 0 0 15.469 5.969c12.703 0 23-10.298 23-23a22.92 22.92 0 0 0-5.969-15.469A23.216 23.216 0 0 0 36.31 5zm4.969 3.781A22.911 22.911 0 0 1 47.498 24.5c0 12.703-10.297 23-23 23a22.909 22.909 0 0 1-15.719-6.219C12.939 45.425 18.662 48 24.998 48c12.703 0 23-10.298 23-23 0-6.335-2.575-12.06-6.719-16.219z" opacity=".05"/>
  <path d="M41.28 8.781a22.923 22.923 0 0 1 5.969 15.469c0 12.703-10.297 23-23 23A22.92 22.92 0 0 1 8.78 41.281 22.911 22.911 0 0 0 24.499 47.5c12.703 0 23-10.298 23-23A22.909 22.909 0 0 0 41.28 8.781z" opacity=".1"/>
  <path d="M31.25 2.375C39.865 5.529 46 13.792 46 23.505c0 12.426-10.07 22.5-22.5 22.5-9.708 0-17.971-6.135-21.12-14.75a23 23 0 0 0 44.875-7 23 23 0 0 0-16-21.875z" opacity=".2"/>
  <path d="M24 1c12.703 0 23 10.297 23 23S36.703 47 24 47 1 36.703 1 24 11.297 1 24 1z" fill="url(#a)"/>
  <g>
    <path d="M40.03 7.531A22.922 22.922 0 0 1 45.999 23c0 12.703-10.297 23-23 23A22.92 22.92 0 0 1 7.53 40.031C11.708 44.322 17.54 47 23.999 47c12.703 0 23-10.298 23-23 0-6.462-2.677-12.291-6.969-16.469z" opacity=".1"/>
  </g>
  <g>
    <path d="M25 10c-8.284 0-15 6.716-15 15 0 8.284 6.716 15 15 15 8.284 0 15-6.716 15-15 0-8.284-6.716-15-15-15zm0 4c6.075 0 11 4.925 11 11s-4.925 11-11 11-11-4.925-11-11 4.925-11 11-11zm0 1a9.964 9.964 0 0 0-8.709 5.094L16 20l7.297 6.04a2 2 0 0 0 .99.82l.074.063.012-.031a2 2 0 0 0 .627.104 2 2 0 0 0 .758-.152L35 24.996l-9.234-1.848a2 2 0 0 0-.059-.021l.004-.001-.711-.229v-7.893z" opacity=".1"/>
    <path d="M24 14a9.965 9.965 0 0 0-8.75 5.156L24 24V14z" fill="#ee7923"/>
    <path d="M24 9C15.716 9 9 15.716 9 24c0 8.284 6.716 15 15 15 8.284 0 15-6.716 15-15 0-8.284-6.716-15-15-15zm0 4c6.075 0 11 4.925 11 11s-4.925 11-11 11-11-4.925-11-11 4.925-11 11-11z" fill="#f2c046"/>
    <path d="M24 22l10 2-10 2z" fill="#333"/>
    <path d="M24.711 22.12l-1.351 3.808L14.999 19z" fill="#333"/>
    <path d="M26 24a2 2 NaN 1 1-4 0 2 2 NaN 1 1 4 0z" fill="#333"/>
  </g>
</svg>
